images/icons/mobile/high-fast.svg

<svg width="94" height="94" viewBox="0 0 94 94" fill="none" xmlns="http://www.w3.org/2000/svg">
<circle cx="47" cy="47" r="46" stroke="url(#paint0_linear_206_9794)" stroke-width="2" stroke-dasharray="2 2"/>
<path d="M51.6773 74.0251H38.1648V66.7082L36.7972 64.0951M51.6773 74.0251V65.1402L48.6699 59.0915C47.9133 57.5699 47.5196 55.8936 47.5196 54.1942V37.9629C48.2125 36.395 50.2221 34.1999 52.7167 37.9629M51.6773 74.0251H69.8672V65.1402L72.988 58.4712C73.6709 57.0118 74.0249 55.4202 74.0249 53.8089V31.1686C71.946 28.2418 69.6939 29.9491 68.8277 31.1686M52.7167 37.9629V47.3705M52.7167 37.9629V25.4196C53.5829 24.0259 55.9389 22.0747 58.4335 25.4196M58.4335 25.4196V41.6214M58.4335 25.4196V22.2837C59.2997 21.2384 61.5518 19.775 63.6306 22.2837V24.3743M63.6306 41.6214V24.3743M63.6306 24.3743C64.4968 22.9806 66.7489 21.0294 68.8277 24.3743V31.1686M68.8277 41.6214V31.1686M66.7489 70.3666H61.0321M38.1648 37.9629C36.0859 35.0361 33.8338 36.7434 32.9676 37.9629V39.531M38.1648 37.9629V46.8478M38.1648 37.9629V29.0782M43.8816 25.4196C41.8027 21.6566 39.2042 23.8517 38.1648 25.4196V29.0782M43.8816 25.4196V41.6214M43.8816 25.4196V22.2837C44.7478 20.5416 47.1038 18.1026 49.5984 22.2837M49.5984 22.2837V31.1686M49.5984 22.2837C50.8111 21.2384 53.5482 19.775 54.7955 22.2837M29.3297 29.0782H38.1648M25.6917 29.0782H19.9749M32.9676 39.531H20.4946M32.9676 39.531V48.1545M32.9676 48.1545V54.0735C32.9676 55.85 33.3979 57.6001 34.2217 59.1741L36.7972 64.0951M32.9676 48.1545H27.7705M25.172 48.1545H23.6128M28.2902 51.5517H20.4946M24.1325 60.4366H19.9749M20.4946 64.0951H36.7972" stroke="url(#paint1_linear_206_9794)" stroke-width="1.5" stroke-linecap="round" stroke-linejoin="round"/>
<defs>
<linearGradient id="paint0_linear_206_9794" x1="-8.75443e-08" y1="47" x2="103.335" y2="47" gradientUnits="userSpaceOnUse">
<stop stop-color="#1E2A5D"/>
<stop offset="0.372917" stop-color="#2A3976"/>
<stop offset="0.699396" stop-color="#3C509C"/>
<stop offset="1" stop-color="#495FBA"/>
</linearGradient>
<linearGradient id="paint1_linear_206_9794" x1="19.9749" y1="47.0001" x2="79.3923" y2="47.0001" gradientUnits="userSpaceOnUse">
<stop stop-color="#1E2A5D"/>
<stop offset="0.372917" stop-color="#2A3976"/>
<stop offset="0.699396" stop-color="#3C509C"/>
<stop offset="1" stop-color="#495FBA"/>
</linearGradient>
</defs>
</svg>

<svg xmlns="http://www.w3.org/2000/svg" width="94" height="94" fill="none"><circle cx="47" cy="47" r="46" stroke="#51AAA0" stroke-dasharray="2 2" stroke-width="2"/><path stroke="#51AAA0" stroke-linecap="round" stroke-linejoin="round" stroke-width="1.5" d="M51.704 74.05H38.192v-7.317l-1.368-2.613m14.88 9.93v-8.885l-4.157-8.362V37.988c.693-1.568 2.702-3.763 5.197 0m-1.04 36.062h18.19v-8.885l4.158-8.885V31.193c-2.079-2.926-4.331-1.219-5.197 0m-16.111 6.795v9.407m0-9.407V25.445c.866-1.394 3.222-3.345 5.717 0m0 0v16.201m0-16.201v-3.136c.866-1.046 3.118-2.51 5.197 0v2.09m0 17.247V24.4m0 0c.866-1.393 3.118-3.345 5.197 0v6.794m0 10.453V31.193m-2.079 39.198h-5.717M38.192 37.988c-2.079-2.927-4.331-1.22-5.197 0v1.568m5.197-1.568v8.885m0-8.885v-8.885m5.717-3.659c-2.08-3.762-4.678-1.567-5.717 0v3.66m5.717-3.66v16.202m0-16.201v-3.136c.866-1.742 3.222-4.181 5.717 0m0 0v8.884m0-8.884c1.212-1.046 3.95-2.51 5.197 0m-25.466 6.794h8.835m-12.473 0h-5.717m12.993 10.453H20.522m12.473 0v8.623m0 0v8.624l3.83 7.317m-3.83-15.94h-5.197m-2.599 0h-1.56m4.678 3.397h-7.795m3.638 8.885h-4.158m.52 3.658h16.302"/></svg>
